X:359
T:Turmit Hoeing
R: hp 16
M:4/4
L:1/4
K:G
D/2D/2| G D B, D| G/2G/2 G2 G| A B c B| B- A2|B/2-c/2| d B c A| B G/2G/2 A D|\
D D E F| G/2F/2 E| D B,/2D/2| G3 D| A3 D| B d c B| B A2 B| d3/2 B/2|\
c/2-B/2 A| B G A G| G F E D| E- F G||

